!!!!SEGMENT: pl-kk--kk-i-3--023_anonim--alleluia-in-die-resurrectionis.krn
!!!cenid: 15xx:631
!!!COM: Anonim
!!!COM-rismID: pe30004985
!!!CDT:
!!!CNT:
!!!OTL: Alleluia, In die resurrectionis
!!!PDT:
!!!AGN:
!!!SMS-siglum: PL-Kk
!!!SMS-shelfmark: Kk.I.3
!!!SMS-shelfwork: 023 W
!!!SMS-variant:
!!!SMS-altvar:
!!!NIFC-rismSourceID: 1001145523
!!!NIFC-islandoraID: pl-kk:1170
!!!URL-pdf-islandora: https://repozytorium.nifc.pl/islandora/object/pl-kk%3A1170/datastream/PDF/view
!!!URL-scan: https://polish.musicsources.pl/pl/lokalizacje/galeria/rekopisy/5919 @EN{Scan on Polish Music Herritage in Open Access Website} @PL{Skany w portalu Dziedzictwo Muzyki Polskiej w otwartym dostępie}
!!!ONB-nifc: UWAGA: Discantus (s. 89v-90v, skan 0092-0093), Tenor (s. 66v-67r, skan 0239), Bassus (s. 87v-88v, skan 0391-0392)
!!!AIN: 1 alto 1 bass 1 tenor
!!!key: G:mix
**kern	**text	**kern	**text	**kern	**text
*part3	*part3	*part2	*part2	*part1	*part1
*staff3	*staff3	*staff2	*staff2	*staff1	*staff1
*I"Bassus	*	*I"Tenor	*	*I"Discantus	*
*I'B	*	*I'T	*	*I'A	*
*Ibass	*	*Itenor	*	*Ialto	*
*ICvox	*	*ICvox	*	*ICvox	*
*clefF3	*	*clefC3	*	*clefC3	*
*k[]	*	*k[]	*	*k[]	*
*G:mix	*	*G:mix	*	*G:mix	*
*M2/1	*	*M2/1	*	*M2/1	*
*met(C|)	*	*met(C|)	*	*met(C|)	*
=1-	=1-	=1-	=1-	=1-	=1-
1D	Al-	00r	.	1.d	Al-
1D	-le-	.	.	.	.
.	.	.	.	4c/	-le-
.	.	.	.	4B/	.
=2-	=2-	=2-	=2-	=2-	=2-
*lig	*	*	*	*	*
1D	-lv-	.	.	1A	.
1E	.	.	.	2G/	.
.	.	.	.	1g\	.
*Xlig	*	*	*	*	*
=3-	=3-	=3-	=3-	=3-	=3-
1C	.	1G	Al-	.	.
*	*	*	*	*2\right	*
*	*	*	*	*custos:g	*
.	.	.	.	2g\	.
!	!	!	!	!LO:LB:g=original	!
1E	.	1G	-le-	2g\	.
.	.	.	.	4f\	.
.	.	.	.	4e\	.
=4-	=4-	=4-	=4-	=4-	=4-
*custos:F	*	*	*	*	*
*	*	*lig	*	*	*
1G	.	1G	-lu-	2.d/	.
.	.	.	.	4e\	.
!LO:LB:g=original	!	!	!	!	!
1.F	.	1A	.	4f\	.
.	.	.	.	4g\	.
.	.	.	.	1a\	.
*	*	*Xlig	*	*	*
=5-	=5-	=5-	=5-	=5-	=5-
.	.	1F	.	.	.
2E/	.	.	.	2g\	.
1D	.	1A	.	1f	.
=6-	=6-	=6-	=6-	=6-	=6-
1C	.	1c	-ja	1e	.
1G	.	1B	.	1d	.
=7-	=7-	=7-	=7-	=7-	=7-
*	*	*custos:c	*	*	*
0A	.	1A	.	2.c/	.
.	.	.	.	4d/	.
!	!	!LO:LB:g=original	!	!	!
.	.	1c	.	4e/	.
.	.	.	.	4A/	.
*	*	*	*	*custos:f	*
.	.	.	.	1a\	.
=8-	=8-	=8-	=8-	=8-	=8-
1D	-ya	1d	.	.	.
!	!	!	!	!LO:LB:g=original	!
.	.	.	.	2f\	lu-
!LO:TX:a:t=[sc]	!	!LO:TX:a:t=[sc]	!	!LO:TX:b:t=[sc-below]	!
1E	.	1G	.	1g	-ya
=9-	=9-	=9-	=9-	=9-	=9-
2r	.	2r	.	1g	.
2C/	.	2c/	.	.	.
2D/	.	2B/	.	0r	.
2.E/	.	2.G/	.	.	.
=10-	=10-	=10-	=10-	=10-	=10-
.	.	.	.	.	.
4F/	.	4A/	.	.	.
2.G/	.	4B/	.	.	.
.	.	4c/	.	.	.
.	.	2d/	.	1g	.
4F/	.	.	.	.	.
2E/	.	2G/	.	.	.
=11-	=11-	=11-	=11-	=11-	=11-
*custos:G	*	*	*	*	*
2D/	.	2A/	.	4f\	.
.	.	.	.	4e\	.
!LO:PB:g=original	!	!	!	!	!
2G/	.	2B/	.	2d/	.
2E/	.	2.c/	.	2e\	.
2C/	.	.	.	2f\	.
.	.	4B/	.	.	.
=12-	=12-	=12-	=12-	=12-	=12-
1D	.	1A	.	2d/	.
.	.	.	.	1e	.
*	*	*custos:G	*	*	*
[1G;;l	.	[1G;l	.	.	.
.	.	.	.	1d\	.
=13-	=13-	=13-	=13-	=13-	=13-
0G]	.	0G]	.	.	.
*	*	*	*	*custos:d	*
.	.	.	.	1.d;l	.
!	!	!LO:PB:g=original	!	!LO:PB:g=original	!
=14||	=14||	=14||	=14||	=14||	=14||
*	*	*lig	*	*	*
2.G/	In	1G	In	2.d/	In
4F/	.	.	.	4e/	di-
2.D/	di-	1d	.	2.f/	-e
4E/	-e	.	.	4g\	.
*	*	*Xlig	*	*	*
=15-	=15-	=15-	=15-	=15-	=15-
2F/	.	1d	di-	2a\	.
2.G/	.	.	.	2.g\	.
.	.	1d	-e	.	.
4A/	.	.	.	4f/	.
*2\right	*	*	*	*	*
2B\	.	.	.	2d/	.
=16-	=16-	=16-	=16-	=16-	=16-
*	*	*lig	*	*	*
1A	.	1c	.	1e	.
*custos:F	*	*	*	*	*
2D/	.	1A	.	2f/	.
!LO:LB:g=original	!	!	!	!	!
2F/	.	.	.	2d/	.
*	*	*Xlig	*	*	*
=17-	=17-	=17-	=17-	=17-	=17-
*	*	*lig	*	*	*
1E	.	1c	.	4e/	.
.	.	.	.	4f\	.
.	.	.	.	4g\	.
.	.	.	.	4e/	.
*	*	*	*	*custos:d	*
2D/	.	1d	.	1f	.
2.d\	.	.	.	.	.
*	*	*Xlig	*	*	*
!	!	!	!	!LO:LB:g=original	!
=18-	=18-	=18-	=18-	=18-	=18-
.	.	1G	.	1d	.
4c\	.	.	.	.	.
2B\	.	.	.	.	.
2A/	.	1F	re-	2r	.
1F\	re	.	.	1.f\	re-
=19-	=19-	=19-	=19-	=19-	=19-
.	.	1A	-ſur-	.	.
1A	svr-	.	.	.	.
.	.	1c	-re-	2.e/	-ſur-
1c\	-rec-	.	.	.	.
.	.	.	.	4f\	-rec-
=20-	=20-	=20-	=20-	=20-	=20-
*	*	*lig	*	*	*
.	.	1c	.	2.g\	.
2C/	-ci-	.	.	.	.
.	.	.	.	8f\L	.
.	.	.	.	8e\J	.
2D/	-o-	1B	.	2f\	.
2E/	nis	.	.	1e\	.
*	*	*Xlig	*	*	*
=21-	=21-	=21-	=21-	=21-	=21-
*	*	*lig	*	*	*
1F	.	1A	-cci-	.	.
.	.	.	.	1d	-ci-
1E	me-	1G	.	.	.
.	.	.	.	2c/	-o-
*	*	*Xlig	*	*	*
=22-	=22-	=22-	=22-	=22-	=22-
*	*	*lig	*	*	*
1D	-e	1A	-o-	1.d	-nis
2r	.	1B	.	.	.
*custos:c	*	*	*	*	*
1d\	.	.	.	2g\	.
*	*	*Xlig	*	*	*
=23-	=23-	=23-	=23-	=23-	=23-
*	*	*	*	*custos:e	*
.	.	1A	-nis	2f\	.
!LO:LB:g=original	!	!	!	!LO:LB:g=original	!
2c\	.	.	.	2.e/	.
*	*	*custos:A	*	*	*
2B\	.	1G	me	.	.
.	.	.	.	4d/	.
2G/	.	.	.	1g\	me-
!	!	!LO:LB:g=original	!	!	!
=24-	=24-	=24-	=24-	=24-	=24-
*	*	*lig	*	*	*
1c	.	1A	.	.	.
.	.	.	.	2f\	-e
2B\	.	1G	.	1g	.
2.d\	di-	.	.	.	.
*	*	*Xlig	*	*	*
=25-	=25-	=25-	=25-	=25-	=25-
.	.	1G	e	2d/	di-
4c\	-cit	.	.	.	.
1B	.	.	.	2e/	-cit
*	*	*lig	*	*	*
.	.	1F	di-	1f	.
1A\	.	.	.	.	.
=26-	=26-	=26-	=26-	=26-	=26-
.	.	1E	.	1g	.
2G/	.	.	.	.	.
*	*	*Xlig	*	*	*
*	*	*lig	*	*	*
1c	.	1F	-cit	1a	.
=27-	=27-	=27-	=27-	=27-	=27-
1B	.	1G	.	1g	.
*	*	*Xlig	*	*	*
2r	.	1G	do-	2r	.
2.E/	do-	.	.	2.e/	do-
=28-	=28-	=28-	=28-	=28-	=28-
*	*	*lig	*	*	*
.	.	1G	-mi-	.	.
4F/	.	.	.	4d/	.
2G/	.	.	.	2B/	.
*	*	*	*	*custos:d	*
2F/	.	1A	.	2c/	.
*custos:C	*	*	*	*	*
!	!	!	!	!LO:LB:g=original	!
2E/	.	.	.	2d/	.
*	*	*Xlig	*	*	*
!LO:LB:g=original	!	!	!	!	!
=29-	=29-	=29-	=29-	=29-	=29-
2C/	.	1c	.	2e/	.
1F	.	.	.	2c/	.
.	.	2A/	.	2.f\	.
2D/	.	1B/	.	.	.
.	.	.	.	4e/	.
=30-	=30-	=30-	=30-	=30-	=30-
2G/	.	.	.	2d/	.
4F/	mi-	4A/	.	1g	-mi-
4E/	.	4G/	.	.	.
1D	-nus	1A	-nus	.	.
.	.	.	.	2f\	.
=31-	=31-	=31-	=31-	=31-	=31-
2r	.	1G	.	2g\	-nis
2.d\	pre-	.	.	2.G/	pre-
*	*	*lig	*	*	*
.	.	1d	pre-	.	.
4c\	-ce	.	.	4A/	-ce
2B\	.	.	.	2B/	.
=32-	=32-	=32-	=32-	=32-	=32-
2A/	.	1f	.	2c/	.
2F/	.	.	.	2d/	.
*	*	*Xlig	*	*	*
*	*	*custos:f	*	*	*
2G/	.	1e	.	2B/	.
2A/	.	.	.	2c/	.
!	!	!LO:LB:g=original	!	!	!
=33-	=33-	=33-	=33-	=33-	=33-
*	*	*	*	*custos:e	*
2D/	.	1f	.	1d	.
1d	.	.	.	.	.
!	!	!	!	!LO:LB:g=original	!
.	.	1g	.	1e	.
*custos:d	*	*	*	*	*
2c\	.	.	.	.	.
!LO:LB:g=original	!	!	!	!	!
=34-	=34-	=34-	=34-	=34-	=34-
2d\	.	1f	.	2f\	.
2D/	.	.	.	1d	.
*	*	*lig	*	*	*
1A	.	1e	.	.	.
.	.	.	.	2c/	.
=35-	=35-	=35-	=35-	=35-	=35-
2.B\	.	1d	.	2.d/	.
4A\	.	.	.	4c/	.
*	*	*Xlig	*	*	*
*	*	*lig	*	*	*
2G/	.	1d	-ce	2B/	.
2.F/	.	.	.	1A/	.
=36-	=36-	=36-	=36-	=36-	=36-
.	.	1f	.	.	.
4E/	.	.	.	.	.
2D/	.	.	.	2B/	.
*	*	*Xlig	*	*	*
2C/	.	1e	.	2c/	.
2E/	.	.	.	2B/	.
=37-	=37-	=37-	=37-	=37-	=37-
1D	.	1f	.	1d	.
2C/	.	1g	.	2e/	.
1c\	.	.	.	2c/	.
=38-	=38-	=38-	=38-	=38-	=38-
.	.	1f	.	1d	.
2B\	.	.	.	.	.
*custos:G	*	*	*	*	*
1c	.	1e	.	2r	.
*	*	*	*	*custos:B	*
.	.	.	.	1c\	.
!LO:PB:g=original	!	!	!	!	!
=39-	=39-	=39-	=39-	=39-	=39-
1G	.	1d	.	.	.
!	!	!	!	!LO:PB:g=original	!
.	.	.	.	2B/	.
2r	.	1c	.	2c/	.
2F/	pre-	.	.	2.f\	.
=40-	=40-	=40-	=40-	=40-	=40-
2F/	-ce-	1f	.	.	.
.	.	.	.	4g\	.
2D/	.	.	.	2a\	.
2E/	.	1c	.	2g\	.
2F/	.	.	.	1f\	ce-
=41-	=41-	=41-	=41-	=41-	=41-
4D/	.	1d	.	.	.
4E/	.	.	.	.	.
4F/	.	.	.	2f/	-dam
4G/	.	.	.	.	.
*	*	*custos:A	*	*	*
4A\	.	2c/	.	2.e/	.
4B\	.	.	.	.	.
!	!	!LO:LB:g=original	!	!	!
2.c\	.	2.A/	.	.	.
.	.	.	.	4c/	.
=42-	=42-	=42-	=42-	=42-	=42-
.	.	.	.	2e/	.
4B\	.	4B/	.	.	.
*custos:G	*	*	*	*	*
2A\	.	4c/	.	2f\	.
.	.	4d/	.	.	.
!LO:LB:g=original	!	!	!	!	!
2G/	.	2e/	.	2g\	.
*	*	*2\right	*	*	*
2F/	.	2f\	.	2a\	.
=43-	=43-	=43-	=43-	=43-	=43-
1G	-dam	2e\	.	2.g\	.
.	.	1d	dam	.	.
*	*	*	*	*custos:e	*
.	.	.	.	4f/	.
!	!	!	!	!LO:LB:g=original	!
1A	.	.	.	1e	.
.	.	2c/	.	.	.
=44-	=44-	=44-	=44-	=44-	=44-
1D	nos	1d	nos	1d	vos
1r	.	1r	.	1r	.
=45-	=45-	=45-	=45-	=45-	=45-
!	!	!	!	!LO:TX:b:t=[sc-below]	!
1E	in	1G	in	1g	in
1C	gal-	1G	ga-	2e/	gal-
.	.	.	.	2.g\	-li-
=46-	=46-	=46-	=46-	=46-	=46-
1E	-li-	1G	-li-	.	.
.	.	.	.	4f\	-le-
.	.	.	.	1e	.
*	*	*lig	*	*	*
1G	.	1G	-le-	.	.
.	.	.	.	2d/	.
=47-	=47-	=47-	=47-	=47-	=47-
1F	.	1A	.	2f\	.
.	.	.	.	1a	.
*	*	*Xlig	*	*	*
*	*	*custos:A	*	*	*
2F/	.	1F	.	.	.
2E/	.	.	.	2g\	.
!	!	!LO:LB:g=original	!	!	!
=48-	=48-	=48-	=48-	=48-	=48-
*	*	*lig	*	*	*
1D	.	1A	.	1f	.
1C	.	1c	.	1e	.
*	*	*Xlig	*	*	*
=49-	=49-	=49-	=49-	=49-	=49-
*	*	*	*	*custos:c	*
1G	.	1B	.	1d	.
*custos:D	*	*	*	*	*
!	!	!	!	!LO:LB:g=original	!
0A	.	1A	.	2.c/	.
.	.	.	.	4d/	.
=50-	=50-	=50-	=50-	=50-	=50-
.	.	1c	.	4e/	.
.	.	.	.	4A/	.
.	.	.	.	2.a\	.
!LO:LB:g=original	!	!	!	!	!
1D	.	1.d	.	.	.
.	.	.	.	4g\	.
.	.	.	.	4f\	.
.	.	.	.	4e/	.
=51-	=51-	=51-	=51-	=51-	=51-
2D/	.	.	.	2.f\	.
2F/	.	2c/	.	.	.
.	.	.	.	4e/	.
2G/	.	2B/	.	2d/	.
2E/	.	2G/	.	2c/	.
=52-	=52-	=52-	=52-	=52-	=52-
1D	.	1A	.	1d	.
*	*	*custos:G	*	*	*
2E/	.	[1G;l	-am	2B/	.
2.C/	.	.	.	1e\	.
=53-	=53-	=53-	=53-	=53-	=53-
.	.	0G_	.	.	.
4D/	.	.	.	.	.
4E/	.	.	.	2e/	-le-
4F/	.	.	.	.	.
2G/	.	.	.	[1d;<l	-am
2GG/	-li-	.	.	.	.
=54-	=54-	=54-	=54-	=54-	=54-
0GG	-le-	0G_	.	0d_	.
=55-	=55-	=55-	=55-	=55-	=55-
*custos:D	*	*	*	*	*
0G;;	-am	0G]	.	0d]	.
==	==	==	==	==	==
*-	*-	*-	*-	*-	*-
!!!system-decoration: [(s1,s2,s3)]
!!!RDF**kern: < = below
!!!RDF**kern: l = terminal long
!!!ENC: Berenika Jozajtis
!!!END: 2022-01-12
!!!ENC: Marta Lawrence
!!!END: 2022-01-23
